X: 17007
T: Headwood Crossing
R: jig
M: 6/8
K: Cmajor
|:cGE ~G3|AGE GAB|cGE ~G3|Add dcB|
cGE ~G3|AGE GAB|cde ~g3|eae ged:|
|:cde ~g3|eae ged|cde ~g3|cAG ~A3|
cde ~g3|eae gab|~a3 ged|eae ged:|

